X: 590
%
U:~=!turn!
T: Stirlingshire Militia
C:Hugh McKay
O:Scotland
B:Keith Norman MacDonald : "The Skye collection of the best reels & strathspeys extant" : 1887
Z:Ralph Palmer
R:March
M:2/4
L:1/16
K:A
"Rather Slow."e2 | AAeA c2BA | ABca e2cA | AAaf efeA | c2B>B B2e2 | AAeA c2BA | ABca e2BA | AAaf efBe | c2A>A A2 ::
g2 | aefa f2ec | e2ae f2ec | e3f efeA | c2B2 BBg2 | aefa f2ec | e2ae f2ec | feaf efBe | c2A2 AA ::
e2 | AAAc eAcA | eAcA c2BA | AAaf efeA | c3B BBe2 | AAAc eAcA | e2ae c2BA | feaf efBe | c2A2 AA::
f2g2 | aece Aefe | aece f2ec | aece Aece | f2B2 B2(fg) | aece Aefe | aece f2ec | feaf efce | c2A2 AA :|


